icons/vimeo-line.svg

<svg xmlns="http://www.w3.org/2000/svg" width="24" height="24" fill="none"><g clip-path="url(#a)"><g><path fill="#121212" d="M17.993 3.00403C20.426 3.00403 21.998 4.51603 21.998 7.50003C21.998 9.22003 21 11.44 20.166 12.735C17.377 17.068 13.933 21.475 10.523 21.475C6.81699 21.475 5.85299 14.644 5.43099 13.043C5.00899 11.442 4.89799 10.833 4.26099 9.81003C3.94399 10.03 3.50099 10.339 2.93099 10.74C2.70699 10.897 2.39799 10.845 2.23799 10.623L0.924987 8.80703C0.788987 8.62003 0.799987 8.36303 0.951987 8.18703C3.77899 4.91503 6.12799 3.27803 7.99999 3.27803C10.392 3.27803 11.124 6.09403 11.324 7.50103C11.624 9.61803 12.014 12.239 12.568 13.373C13.125 12.581 14.748 10.485 14.535 9.38303C14.441 8.89703 13.218 9.56603 12.648 9.46103C12.223 9.38103 11.842 9.05903 11.842 8.43503C11.842 7.12503 13.694 3.00503 17.993 3.00503V3.00403ZM18 5.00403C15.805 5.00403 14.749 6.53703 14.347 7.21203C15.597 7.25803 16.317 8.03003 16.48 9.01503C16.869 11.345 14.564 13.935 14.141 14.58C13.745 15.183 11.08 17.908 9.89099 11.22C9.77899 10.591 9.52399 9.05703 9.22599 7.03403C9.05599 5.88303 8.35299 5.27103 7.99599 5.27103C7.15399 5.27103 6.07599 5.92103 4.14099 7.78603C6.04599 7.67103 6.68599 10.062 7.05699 11.419C7.87299 14.403 8.62799 19.475 10.677 19.475C12.404 19.475 15.116 16.829 18.047 12.435C18.256 12.124 20.013 9.41103 20.013 7.39903C20.013 5.00403 18.544 5.00403 18 5.00403Z"/></g></g><defs><clipPath id="a"><rect width="24" height="24" fill="white"/></clipPath></defs></svg>

<svg width="24" height="24" fill="none" xmlns="http://www.w3.org/2000/svg"><g clip-path="url(#a)"><path d="M17.993 3.004c2.433 0 4.005 1.512 4.005 4.496 0 1.72-.998 3.94-1.832 5.235-2.789 4.333-6.233 8.74-9.643 8.74-3.706 0-4.67-6.831-5.092-8.432-.422-1.601-.533-2.21-1.17-3.233-.317.22-.76.529-1.33.93a.5.5 0 0 1-.693-.117L.925 8.807a.5.5 0 0 1 .027-.62C3.779 4.915 6.128 3.278 8 3.278c2.392 0 3.124 2.816 3.324 4.223.3 2.117.69 4.738 1.244 5.872.557-.792 2.18-2.888 1.967-3.99-.094-.486-1.317.183-1.887.078-.425-.08-.806-.402-.806-1.026 0-1.31 1.852-5.43 6.151-5.43v-.001Zm.007 2c-2.195 0-3.251 1.533-3.653 2.208 1.25.046 1.97.818 2.133 1.803.389 2.33-1.916 4.92-2.339 5.565-.396.603-3.061 3.328-4.25-3.36a160.43 160.43 0 0 1-.665-4.186c-.17-1.151-.873-1.763-1.23-1.763-.842 0-1.92.65-3.855 2.515 1.905-.115 2.545 2.276 2.916 3.633.816 2.984 1.571 8.056 3.62 8.056 1.727 0 4.439-2.646 7.37-7.04.209-.311 1.966-3.024 1.966-5.036 0-2.395-1.469-2.395-2.013-2.395Z" /></g><defs><clipPath id="a"><path fill="#fff" d="M0 0h24v24H0z"/></clipPath></defs></svg>
